X: 40
T:Skepparschottis
M:2/4
L:1/16
Q:75
C:Thore Hrdelin
S:House Band, Stonetown
R:Schottis
O:Sweden
A:Hlsingland
N:
K:D
D2FA d2BA | d2BA d2d2 | D2FA d2BA | d2BA c4 |\
A2ce g2fe | g2fe a2a2 | abaf g2ec |1 e2dc d2AF :|2 e2dc d3f ||
a>baf dfA2 | a>baf dfA2 | f2ed f2ed | f2ed e3f |\
g>age ceA2 | g>age ceA2 | g2fe a2fe |1 e2dc d3f :|2 e2dc d4 ||
